X:1
T:Casting All Your Care upon Him
T:Casting All Your Care upon Him
T:James McGranahan, 1882
T:H. A. César Malan, tr. Jane E. Arnold, 1866
T:Public Domain Courtesy of the Cyber Hymnal™
T:Public Domain Courtesy of the Cyber Hymnal™
C:James McGranahan, 1882
Z:Public Domain
Z:Courtesy of the Cyber Hymnal™
%%score ( 1 2 ) ( 3 4 )
L:1/8
Q:1/4=105
M:6/8
K:Ab
V:1 treble 
V:2 treble 
V:3 bass 
V:4 bass 
V:1
 [CE] | [CE]2 [CA] [CA]2 [DB] | [CA]2 [EG] [DF]2 [CE] | [CE]2 [Ec] [Ec]2 [Fd] | [Ec]3- [Ec]2 [Ec] | %5
w: 1.~How|sweet, my Sav- ior,|to re- pose On|Thine al- might- y|power! * To|
w: 2.~It|is Thy will that|I should cast My|ev- ery care on|Thee; * To|
w: 3.~That|I should trust Thy|lov- ing care, And|look to Thee a-|lone, * To|
w: 4.~Why|should my heart then|be dis- tressed By|dread of fu- ture|ill? * Or|
 [Gd]2 [Ac] [EB]2 [EB] | [Ec]2 [DB] [CA]2 [EA] | [DB]2 [FA] (GF)[DG] | [CA]3 || %9
w: feel Thy strength up-|hold- ing me, Thro’|ev- ery try- * ing|hour!|
w: Thee re- fer each|ris- ing grief, Each|new per- plex- * i-|ty.|
w: calm each trou- bled|thought to rest, In|prayer be- fore * Thy|throne.|
w: why should un- be-|liev- ing fear My|trem- bling spir- * it|fill?|
[M:12/8]"^Refrain" [CE]2 [CA] | [Ec]6- [Ec]3 [DB][CA][EG][DF] | [CE]6- [CE]3 [CE]2 [EG] | %12
w: |||
w: Cast- ing|all * your care up- on|Him, * Cast- ing|
w: |||
w: |||
 [DB]6- [DB]2 [CA] [B,G][DF][DG] | [CA]6- [CA]3 [CE]2 [CA] | c6- [_Gc]2 [GB] [GA][GB][Gc] | %15
w: |||
w: all * your care up- on|Him, * Cast- ing|all your care up- on Him,|
w: |||
w: |||
 [Fd]6- [Fd]3 (dc)[DB] | [Ee]3 [FA]2 [Fd] [Ec]3 [DB]2 [DB] | [CA]6- [CA]3 |] %18
w: |||
w: * * For * He|car- eth, He car- eth for|you. *|
w: |||
w: |||
V:2
 x | x6 | x6 | x6 | x6 | x6 | x6 | x3 E2 x | x3 ||[M:12/8] x3 | x13 | x12 | x12 | x12 | E3 A3 x6 | %15
 x9 E2 x | x12 | x9 |] %18
V:3
 [A,,A,] | [A,,A,]2 [A,,E,] [A,,E,]2 [A,,E,] | [A,,E,]2 [A,,A,] [A,,A,]2 [A,,A,] | %3
w: ~|~ ~ ~ ~|~ ~ ~ ~|
 [A,,A,]2 [A,,A,] A,2 A, | A,3- A,2 [A,E] | [B,E]2 [A,E] [G,D]2 [G,D] | %6
w: ~ ~ ~ ~|~ * ~|~ ~ ~ ~|
 [A,C]2 [E,G,] [F,A,]2 [C,A,] | [D,F,]2 [D,B,] [E,B,]2 [E,B,] | [A,,A,]3 || %9
w: ~ ~ ~ ~|~ ~ ~ ~|~|
[M:12/8] [A,,A,]2 [A,,A,] | [A,,A,]3 [A,,A,]3 [A,,A,]3 z4 | %11
w: Cast- ing|all your care,|
 [A,,A,]2 [A,,A,] [A,,A,][A,,A,][A,,A,] [A,,A,]3 z3 | [E,G,]3 [E,G,]3 [E,G,]3 z3 | %13
w: all your care up- on Him,|all your care,|
 [A,,E,]2 [A,,E,] [A,,E,][A,,E,][A,,E,] [A,,E,]3 [A,,A,]2 [A,,A,] | %14
w: all your care up- on Him, Cast- ing|
 (A,2 B, [A,C]2) [A,,D] (E2 D CDE) | D6- [B,,D]3 G,2 [D,G,] | %16
w: all * * your care, * * * *|all care up- on|
 [C,A,]3 [D,A,]2 [D,A,] [E,A,]3 [E,G,]2 E, | [A,,E,]6- [A,,E,]3 |] %18
w: Him * * * * *||
V:4
 x | x6 | x6 | x3 A,2 A, | A,3- A,2 x | x6 | x6 | x6 | x3 ||[M:12/8] x3 | x13 | x12 | x12 | x12 | %14
 A,3- x A,,3- A,,3 x2 | B,,2 B,, B,,B,,B,, x (B,,C,) x3 | x11 E, | x9 |] %18

